X: 27379
T: Mo Ghra Thu
R: jig
M: 6/8
K: Adorian
|:~c3 dcd|eaa ged|^cAB ~=c2 d|edc ded|
cAB ~c2 d||eaa gag|ged B^cd|1 eAA [EA]2 B:|2 eAA [EA]2 b||
|:c'ba bag|efg a2 b|c'ba aba|ged eaa|
c'aa baa|age ~g3|ged B^cd|1 eAA A2 b:|2 eAA A2 B||

